icon-themes/breeze_svg/cmd/lc_comparedocuments.svg

<svg viewBox="0 0 24 24" xmlns="http://www.w3.org/2000/svg"><path d="m7.5 4a1.500015 1.500015 0 0 0 -1.5 1.5 1.500015 1.500015 0 0 0 1 1.4121094v9.0878906a2 2 0 0 0 2 2h1v2l3-2.5-3-2.5v2h-1a1 1 0 0 1 -1-1v-9.0878906a1.500015 1.500015 0 0 0 1-1.4121094 1.500015 1.500015 0 0 0 -1.5-1.5zm6.5 0-3 2.5 3 2.5v-2h1a1 1 0 0 1 1 1v9.087891a1.500015 1.500015 0 0 0 -1 1.412109 1.500015 1.500015 0 0 0 1.5 1.5 1.500015 1.500015 0 0 0 1.5-1.5 1.500015 1.500015 0 0 0 -1-1.412109v-9.087891a2 2 0 0 0 -2-2h-1zm-6.5 1a.5.5 0 0 1 .5.5.5.5 0 0 1 -.5.5.5.5 0 0 1 -.5-.5.5.5 0 0 1 .5-.5zm9 13a.5.5 0 0 1 .5.5.5.5 0 0 1 -.5.5.5.5 0 0 1 -.5-.5.5.5 0 0 1 .5-.5z" fill="#4d4d4d"/></svg>

<svg xmlns="http://www.w3.org/2000/svg" viewBox="0 0 24 24">
 <path 
     style="fill:#4d4d4d" 
     d="M 7.5 4 A 1.500015 1.500015 0 0 0 6 5.5 A 1.500015 1.500015 0 0 0 7 6.9121094 L 7 16 A 2 2 0 0 0 9 18 L 10 18 L 10 20 L 13 17.5 L 10 15 L 10 17 L 9 17 A 1 1 0 0 1 8 16 L 8 6.9121094 A 1.500015 1.500015 0 0 0 9 5.5 A 1.500015 1.500015 0 0 0 7.5 4 z M 14 4 L 11 6.5 L 14 9 L 14 7 L 15 7 A 1 1 0 0 1 16 8 L 16 17.087891 A 1.500015 1.500015 0 0 0 15 18.5 A 1.500015 1.500015 0 0 0 16.5 20 A 1.500015 1.500015 0 0 0 18 18.5 A 1.500015 1.500015 0 0 0 17 17.087891 L 17 8 A 2 2 0 0 0 15 6 L 14 6 L 14 4 z M 7.5 5 A 0.5 0.5 0 0 1 8 5.5 A 0.5 0.5 0 0 1 7.5 6 A 0.5 0.5 0 0 1 7 5.5 A 0.5 0.5 0 0 1 7.5 5 z M 16.5 18 A 0.5 0.5 0 0 1 17 18.5 A 0.5 0.5 0 0 1 16.5 19 A 0.5 0.5 0 0 1 16 18.5 A 0.5 0.5 0 0 1 16.5 18 z "
     />
 </svg>
